X:1
T:Title
%%score { ( 1 3 4 ) | 2 }
L:1/8
Q:1/4=100
M:4/4
K:Ab
V:1 treble nm="Grand Piano"
V:3 treble 
V:4 treble 
V:2 bass 
V:1
 [Ec]3 [DB] [CA]3 [DB] | [Ec]2 [CA]2 F2 E2 | G3 A B2 d2 | [Ec]2 [=D_c]2 [E=c]4 | %4
w: J.~M.~Dungan * * *||||
 [Ec]3 [DB] [CA]3 [DB] | [Ec]2 [CA]2 [DF]2 [CE]2 | [DF]3 [Fd] [Fc]2 [B,FB]2 | %7
w: |||
[M:7/8] [CEA]2 [B,EG]2 [CEA]3 |[M:1/4] d>c |[M:4/4] F2 z2 D2 c>B | z2 E4 G2 | z2 E2 z z/ f/ e>B | %12
w: |||||
 c6 z2 | F2 z2 D2 c>B | z2 E4 G2 | z2 z d c2 B2 | A6 z2 |] %17
w: |||||
V:2
 [A,,A,]3 [A,,A,] [A,,A,]3 [A,,A,] | [A,,A,]2 [A,,A,]2 [D,A,D]2 [A,C]2 | %2
 [E,B,E]3 [E,CE] [E,DE]2 [E,B,E]2 | [A,,A,]2 [A,,A,]2 [A,,A,]4 | %4
 [A,,A,]3 [A,,A,] [A,,A,]3 [A,,A,] | [A,,A,]2 [A,,A,]2 [D,A,]2 [A,,A,]2 | %6
 [D,A,]3 [B,,B,] [C,=A,]2 D,2 |[M:7/8] E,2 E,2 A,,3 |[M:1/4] z2 | %9
[M:4/4] [D,A,D]2 [D,A,D]2 [D,A,]2 [D,A,D]2 | [A,,A,]2 [A,,A,]2 [A,,A,]2 [A,,A,]2 | %11
 [E,G,E]2 [E,G,]2 [E,G,]2 [E,G,E]2 | [A,,A,]2 [A,,A,]2 [A,,A,]2 z2 | %13
 [D,A,D]2 [D,A,D]2 [D,A,]2 [D,A,D]2 | [A,,A,]2 [A,,A,]2 [A,,A,]2 [A,,A,]2 | %15
 [E,G,E]2 [E,G,]2 [E,G,E]2 [E,DE]2 | A,,2 A,,2 A,,2 z2 |] %17
V:3
 x8 | x8 | x8 | x8 | x8 | x8 | x8 |[M:7/8] x7 |[M:1/4] x2 |[M:4/4] z2 F4 z2 | [CE]2 C2 C2 C->[CA] | %11
 B6 z2 | E2 E2 E2 d>c | z2 F4 z2 | [CE]2 C2 C2 C->[CA] | B4 z4 | [CE]2 [DF]2 [CE]2 z2 |] %17
V:4
 x8 | x8 | x8 | x8 | x8 | x8 | x8 |[M:7/8] x7 |[M:1/4] x2 |[M:4/4] x8 | x8 | z4 E2 z2 | x8 | x8 | %14
 x8 | z2 E2 z4 | x8 |] %17

